Sources/FrostedUI/Resources/Icons.xcassets/photos24.imageset/photos-24.svg

<svg width="24" height="24" viewBox="0 0 24 24" fill="none" xmlns="http://www.w3.org/2000/svg" data-fui-icon="true">
  <path
    fill-rule="evenodd"
    clip-rule="evenodd"
    d="M12 7.75C12 6.23122 13.2312 5 14.75 5C16.2688 5 17.5 6.23122 17.5 7.75C17.5 9.26878 16.2688 10.5 14.75 10.5C13.2312 10.5 12 9.26878 12 7.75ZM14.75 6.5C14.0596 6.5 13.5 7.05964 13.5 7.75C13.5 8.44036 14.0596 9 14.75 9C15.4404 9 16 8.44036 16 7.75C16 7.05964 15.4404 6.5 14.75 6.5Z"
    fill="currentColor"
  />
  <path
    fill-rule="evenodd"
    clip-rule="evenodd"
    d="M7.38 19C5.51328 19 4 17.4867 4 15.62V4.88C4 3.01328 5.51328 1.5 7.38 1.5H20.62C22.4867 1.5 24 3.01328 24 4.88V15.62C24 17.4867 22.4867 19 20.62 19H7.38ZM7.38 3C6.3417 3 5.5 3.8417 5.5 4.88V12.3661L7.14277 10.3178C7.5574 9.80083 8.1843 9.5 8.84702 9.5C9.46802 9.5 10.0597 9.76428 10.4741 10.2268L14.6141 14.8473L16.6354 12.327C17.0547 11.8042 17.6886 11.5 18.3587 11.5C18.9667 11.5 19.5477 11.7505 19.9651 12.1926L22.5 14.8778V4.88C22.5 3.8417 21.6583 3 20.62 3H7.38ZM22.1583 16.701L18.8743 13.2223C18.7404 13.0804 18.5538 13 18.3587 13C18.1436 13 17.9401 13.0976 17.8056 13.2654L15.6287 15.9796L16.9489 17.453C16.9626 17.4683 16.9755 17.484 16.9877 17.5H20.62C21.2559 17.5 21.8181 17.1843 22.1583 16.701ZM8.31292 11.2563L5.5 14.7636V15.62C5.5 16.6583 6.3417 17.5 7.38 17.5H14.9769L9.35693 11.2278C9.22705 11.0828 9.04163 11 8.84702 11C8.63933 11 8.44286 11.0943 8.31292 11.2563Z"
    fill="currentColor"
  />
  <path
    d="M2 4.1875C2 3.77329 1.66421 3.4375 1.25 3.4375C0.835786 3.4375 0.5 3.77329 0.5 4.1875V18.875C0.5 20.739 2.01104 22.25 3.875 22.25H20.3125C20.7267 22.25 21.0625 21.9142 21.0625 21.5C21.0625 21.0858 20.7267 20.75 20.3125 20.75H3.875C2.83947 20.75 2 19.9105 2 18.875V4.1875Z"
    fill="currentColor"
  />
</svg>

<svg xmlns="http://www.w3.org/2000/svg" width="24" height="24" fill="none" data-fui-icon="true" viewBox="0 0 24 24"><path fill="currentColor" fill-rule="evenodd" d="M12 7.75a2.75 2.75 0 1 1 5.5 0 2.75 2.75 0 0 1-5.5 0m2.75-1.25a1.25 1.25 0 1 0 0 2.5 1.25 1.25 0 0 0 0-2.5" clip-rule="evenodd"/><path fill="currentColor" fill-rule="evenodd" d="M7.38 19A3.38 3.38 0 0 1 4 15.62V4.88A3.38 3.38 0 0 1 7.38 1.5h13.24A3.38 3.38 0 0 1 24 4.88v10.74A3.38 3.38 0 0 1 20.62 19zm0-16A1.88 1.88 0 0 0 5.5 4.88v7.486l1.643-2.048a2.185 2.185 0 0 1 3.331-.091l4.14 4.62 2.021-2.52a2.21 2.21 0 0 1 3.33-.134l2.535 2.685V4.88A1.88 1.88 0 0 0 20.62 3zm14.778 13.701-3.284-3.479a.71.71 0 0 0-1.068.043l-2.177 2.715 1.32 1.473.039.047h3.632c.636 0 1.198-.316 1.538-.799M8.313 11.256 5.5 14.764v.856a1.88 1.88 0 0 0 1.88 1.88h7.597l-5.62-6.272a.685.685 0 0 0-1.044.028" clip-rule="evenodd"/><path fill="currentColor" d="M2 4.188a.75.75 0 0 0-1.5 0v14.687a3.375 3.375 0 0 0 3.375 3.375h16.438a.75.75 0 0 0 0-1.5H3.875A1.875 1.875 0 0 1 2 18.875z"/></svg>
